!!!OTL: DRAUSSE IM GRUENE WALD
!!!ARE: Europa, Mitteleuropa, Deutschland, Rheinpfalz, Kaiserslautern,     Otternberg
!!!SCT: E1027
!!!YEM: Copyright 1995, estate of Helmut Schaffrath.
**kern
*ICvox
*Ivox
*M3/8
*k[b-]
*F:
=1
{8cc
8cc
8ff
=2
8dd
8dd
8cc}
=3
{8b-
8b-
8a
=4
8g
8f
8r}
=5
{8a
8a
8b-
=6
8g
8g
8cc}
=7
{8a
8a
8b-
=8
4g
8f}
=9
{8a
8a
8b-
=10
8g
8g
8cc}
=11
{8a
8a
8b-
=12
8g
8f
8r}
==
!!!AGN: Tanz - Lied
!!!ONB: ESAC (Essen Associative Code) Database: ERK3
!!!AMT: simple triple
!!!AIN: vox
!!!EED: Helmut Schaffrath
!!!EEV: 1.0
*-
!!!title: @{OTL} [@{SCT}]
